img/l/leetcode.com.svg

<svg viewBox="0 0 93.99999237060547 110.91999816894531" version="1.1" xmlns="http://www.w3.org/2000/svg" xmlns:xlink="http://www.w3.org/1999/xlink">
  <g id="LeetCode’s-new-logo" stroke="none" stroke-width="1" fill="none" fill-rule="evenodd">
    <g transform="translate(-812.000000, -3714.000000)" id="logo_english_dark">
      <g transform="translate(812.000000, 3714.000000)">
        <g id="Logo_English">
          <g id="Group-10">
            <path d="M67.5068339,83.0664138 C70.0005384,80.5763786 74.0371402,80.5828822 76.5228362,83.0809398 C79.0085322,85.5789975 79.00204,89.6226456 76.5083355,92.1126808 L65.4351451,103.169577 C55.2192332,113.370744 38.5604663,113.518673 28.1722578,103.513204 C28.112217,103.455678 23.486583,98.9201326 8.22702585,83.9570195 C-1.92478479,74.0028895 -2.93614945,58.0748736 6.61697549,47.8463644 L24.4286944,28.7745461 C33.9100043,18.6218594 51.3874487,17.5122246 62.2279907,26.2789232 L78.4052912,39.3620235 C81.1448956,41.5776292 81.5728103,45.5984975 79.3610655,48.3428842 C77.1493207,51.0872709 73.1354592,51.5159327 70.3958548,49.300327 L54.2186634,36.2173149 C48.5492813,31.6325105 38.631911,32.2621597 33.7398535,37.5006265 L15.9279056,56.5726899 C11.2772073,61.552182 11.7865613,69.5740156 17.1461283,74.8292186 C28.3515339,85.8169393 36.9874071,94.2846214 36.9973988,94.294225 C42.3981571,99.4959838 51.130862,99.418438 56.43358,94.1233737 L67.5068339,83.0664138 Z" id="Combined-Shape" fill="#FFA116" fill-rule="nonzero"></path>
            <path d="M40.6069914,72.0014117 C37.086019,72.0014117 34.2317068,69.142117 34.2317068,65.6149982 C34.2317068,62.0878794 37.086019,59.2285847 40.6069914,59.2285847 L87.6247154,59.2285847 C91.1456879,59.2285847 94,62.0878794 94,65.6149982 C94,69.142117 91.1456879,72.0014117 87.6247154,72.0014117 L40.6069914,72.0014117 Z" id="Path-2" fill="#B3B3B3"></path>
            <path d="M49.4124315,2.02335002 C51.8178981,-0.552320454 55.852269,-0.686893945 58.4234511,1.72277172 C60.9946333,4.13243738 61.1289722,8.17385083 58.7235056,10.7495213 L15.9282277,56.5728697 C11.2773659,61.551984 11.7867168,69.5737689 17.1459309,74.8291832 L36.9094236,94.2091099 C39.4255514,96.6764051 39.4686234,100.719828 37.0056277,103.240348 C34.5426319,105.760868 30.5062548,105.804016 27.990127,103.33672 L8.22654289,83.9567041 C-1.92467414,74.0021005 -2.93603527,58.0741402 6.61751533,47.846311 L49.4124315,2.02335002 Z" id="Stroke-3" fill="#000000"></path>
          </g>
        </g>
      </g>
    </g>
  </g>
</svg>

<svg xmlns="http://www.w3.org/2000/svg" viewBox="0 0 94 110.92"><g fill="none" fill-rule="evenodd"><path fill="#FFA116" fill-rule="nonzero" d="M67.5 83.07a6.37 6.37 0 0 1 9.02.01 6.4 6.4 0 0 1-.01 9.03l-11.07 11.06a26.7 26.7 0 0 1-37.27.34L8.23 83.96C-1.92 74-2.94 58.07 6.62 47.85l17.8-19.08c9.49-10.15 26.97-11.26 37.8-2.5l16.19 13.1a6.4 6.4 0 0 1-8.01 9.93L54.22 36.22c-5.67-4.59-15.59-3.96-20.48 1.28L15.93 56.57c-4.65 4.98-4.14 13 1.22 18.26L37 94.29a13.96 13.96 0 0 0 19.43-.17l11.08-11.05Z"/><path fill="#B3B3B3" d="M40.6 72a6.38 6.38 0 0 1 0-12.77h47.02a6.38 6.38 0 0 1 0 12.77H40.61Z"/><path fill="#000" d="M49.41 2.02a6.37 6.37 0 0 1 9.01-.3 6.4 6.4 0 0 1 .3 9.03l-42.8 45.82c-4.64 4.98-4.13 13 1.23 18.26L36.9 94.2a6.4 6.4 0 0 1 .1 9.03 6.37 6.37 0 0 1-9.02.1L8.23 83.96C-1.92 74-2.94 58.07 6.62 47.85l42.8-45.83Z"/></g></svg>
